X: 1
T: Patrick's Night
C: Paddy O'Brien of Nenagh, Country Tipperary
M: 4/4
L: 1/8
R: reel
K: Dmaj
|: AG |\
FD D/E/D EDB,A, | DEFA BddB | AF F/G/F dBAF | E2 DF EDB,D |
FD D/E/D EDB,A, | DEFA BddB | AF F/G/F dBAF | EDEF D2 :|
|: FA |\
d/e/d ce dBAF | DF ~F2 DEFA | d/e/d ce dBAd | BEFA Beec |
dfec dcdB | AF ~F2 BF BFAF | DEFA dBAF | EDEF D2 :|
K: Gmaj
|: dc |\
BG ~G AGED | GABd egge | ~ | dB ~B2 gedB | AGAB G2 :|
|: Bd |\
~g2 fa gedB | GB ~B2 GABd | ~ | GABd gedB | AGAB G2 :|
